icons/hex-cross.svg

<svg width="24" height="24" viewBox="0 0 24 24" fill="none" xmlns="http://www.w3.org/2000/svg">
<path fill-rule="evenodd" clip-rule="evenodd" d="M8.25789 3.03968C8.48102 2.94051 8.71248 2.90002 8.95001 2.90002H15.05C15.2875 2.90002 15.519 2.94051 15.7421 3.03968C15.962 3.13741 16.1361 3.27544 16.2803 3.41971L20.5803 7.7197C20.7246 7.86397 20.8626 8.03805 20.9603 8.25792C21.0595 8.48105 21.1 8.71251 21.1 8.95004V15.05C21.1 15.2876 21.0595 15.519 20.9603 15.7422C20.8626 15.962 20.7246 16.1361 20.5803 16.2804L16.2803 20.5804C16.136 20.7247 15.962 20.8627 15.7421 20.9604C15.5189 21.0596 15.2875 21.1 15.05 21.1H8.95001C8.71251 21.1 8.48106 21.0596 8.25792 20.9604C8.03805 20.8627 7.86396 20.7247 7.71967 20.5804L3.41968 16.2804C3.27543 16.1361 3.13739 15.962 3.03966 15.7422C2.94048 15.519 2.89999 15.2876 2.89999 15.05V8.95004C2.89999 8.71251 2.94048 8.48105 3.03965 8.25792C3.13738 8.03805 3.27541 7.86397 3.41968 7.7197L7.71967 3.41971C7.86394 3.27544 8.03802 3.13741 8.25789 3.03968ZM8.86713 4.41038C8.86199 4.41267 8.83606 4.42464 8.78033 4.48037L4.48034 8.78036C4.42461 8.83609 4.41264 8.86202 4.41035 8.86716L4.41025 8.86739C4.40891 8.87028 4.39999 8.8896 4.39999 8.95004V15.05C4.39999 15.1105 4.40891 15.1298 4.41024 15.1327L4.41035 15.1329C4.41263 15.138 4.4246 15.164 4.48034 15.2197L3.95001 15.75L4.48034 15.2197L8.78033 19.5197C8.83604 19.5754 8.86196 19.5874 8.86709 19.5897L8.86732 19.5898C8.87021 19.5911 8.88954 19.6 8.95001 19.6H15.05C15.1105 19.6 15.1298 19.5911 15.1327 19.5898L15.1329 19.5897C15.138 19.5874 15.164 19.5754 15.2197 19.5197L19.5197 15.2197C19.5754 15.164 19.5874 15.138 19.5897 15.1329L19.5898 15.1327C19.5911 15.1298 19.6 15.1105 19.6 15.05V8.95004C19.6 8.88958 19.5911 8.87027 19.5898 8.86739L19.5896 8.86716C19.5874 8.86202 19.5754 8.83609 19.5197 8.78036L15.2197 4.48037C15.1639 4.42464 15.138 4.41267 15.1329 4.41038L15.1326 4.41028C15.1298 4.40894 15.1104 4.40002 15.05 4.40002H8.95001C8.88957 4.40002 8.87025 4.40894 8.86736 4.41028L8.86713 4.41038ZM9.31961 9.41962C9.61251 9.12673 10.0874 9.12673 10.3803 9.41962L11.9999 11.0393L13.6196 9.41962C13.9125 9.12673 14.3874 9.12673 14.6803 9.41962C14.9732 9.71251 14.9732 10.1874 14.6803 10.4803L13.0606 12.0999L14.6803 13.7196C14.9732 14.0125 14.9732 14.4874 14.6803 14.7803C14.3874 15.0732 13.9125 15.0732 13.6196 14.7803L11.9999 13.1606L10.3803 14.7803C10.0874 15.0732 9.61251 15.0732 9.31961 14.7803C9.02672 14.4874 9.02672 14.0125 9.31961 13.7196L10.9393 12.0999L9.31961 10.4803C9.02672 10.1874 9.02672 9.71251 9.31961 9.41962Z" fill="black"/>
</svg>

<svg xmlns="http://www.w3.org/2000/svg" fill="none" viewBox="0 0 24 24">
  <path fill="#000" fill-rule="evenodd" d="M8.258 3.04c.223-.1.454-.14.692-.14h6.1c.237 0 .469.04.692.14.22.097.394.235.538.38l4.3 4.3c.145.144.283.318.38.538.1.223.14.455.14.692v6.1c0 .238-.04.469-.14.692-.097.22-.235.394-.38.538l-4.3 4.3a1.784 1.784 0 0 1-.538.38c-.223.1-.455.14-.692.14h-6.1c-.237 0-.469-.04-.692-.14a1.785 1.785 0 0 1-.538-.38l-4.3-4.3a1.787 1.787 0 0 1-.38-.538 1.68 1.68 0 0 1-.14-.692v-6.1c0-.237.04-.469.14-.692.097-.22.235-.394.38-.538l4.3-4.3c.144-.145.318-.283.538-.38Zm.61 1.37a.323.323 0 0 0-.088.07l-4.3 4.3a.323.323 0 0 0-.07.087.205.205 0 0 0-.01.083v6.1c0 .06.009.08.01.083a.322.322 0 0 0 .07.087l-.53.53.53-.53 4.3 4.3a.324.324 0 0 0 .087.07c.003.001.023.01.083.01h6.1c.06 0 .08-.009.083-.01a.324.324 0 0 0 .087-.07l4.3-4.3a.324.324 0 0 0 .07-.087c.001-.003.01-.022.01-.083v-6.1c0-.06-.009-.08-.01-.083a.32.32 0 0 0-.07-.087l-4.3-4.3a.325.325 0 0 0-.087-.07.204.204 0 0 0-.083-.01h-6.1c-.06 0-.08.009-.083.01Zm.452 5.01a.75.75 0 0 1 1.06 0L12 11.04l1.62-1.62a.75.75 0 0 1 1.06 1.06l-1.62 1.62 1.62 1.62a.75.75 0 0 1-1.06 1.06L12 13.16l-1.62 1.62a.75.75 0 1 1-1.06-1.06l1.62-1.62-1.62-1.62a.75.75 0 0 1 0-1.06Z" clip-rule="evenodd"/>
</svg>
